X: 1
T: Gracee Nugent by Carrallan
B: A COLECTION of the most Celebrated Irish Tunes2 p.6a
M: C|
L: 1/8
K: Ador
|:\
A2E2 A2B2 | c2c2B2(AG) | e2A2 (dc)(BA) | ^G4 {F}E4 |\
(cB)(cd) c2d2 | edef g2e2 | a2e2 (dc)(BA) |1 A4 A4 :|2 A4 A2 |]
|: ef |\
g2g2 gagf | g2G2 G2fg | a2a2 abag | a2A2 A2(ab) |\
c'2c2 cdec | c'2c2 c2e2 | d2c2 TB3(A/B/) | G4 TE3e/f/ |
g2d2 defd | g2d2 d2(fg) | a2e2 efge | a4 (Tf3e/f/) |\
g2c2 g2fg | a2e2 d2c2 | TB3A GABG |1 A4 A2 :|2 A4 A4 |]
